X: 3557
T: Big Red
R: reel
M: 4/4
K: Amajor
|:A,B,|CF~F2 {d}BAFA|ceef ecAc|B/B/B fB {d}cBfB|B/B/B fB {d}cBAE|
FA{d}cA {d}BAFA|cAef ecAc|B/B/B fB {d}cAec|{d}BAGE F2:|
|:AB|cf~f2 defa|ec{d}cB A3 B|ceef ecAB|cB{d}BA GBEB|
cf~f2 defa|ec{d}cB A3 B|ceag fecA|{d}BAGE F2:|

